lib/flags/s/760.svg

<svg xmlns="http://www.w3.org/2000/svg" fill="none" viewBox="0 0 16 12"><mask id="760_svg__a" width="16" height="12" x="0" y="0" mask-type="alpha" maskUnits="userSpaceOnUse"><path fill="#fff" d="M0 0H16V12H0z"/></mask><g fill-rule="evenodd" clip-rule="evenodd" mask="url(#760_svg__a)"><path fill="#F7FCFF" d="M0 0H16V12H0V0Z"/><path fill="#409100" d="M4.5009 6.93534 3.56556 7.5 3.77891 6.39812 3 5.57347 4.05468 5.52888 4.5009 4.5 4.94711 5.52888H6L5.22289 6.39812 5.45685 7.5 4.5009 6.93534zM11.5009 6.93534 10.5656 7.5 10.7789 6.39812 10 5.57347 11.0547 5.52888 11.5009 4.5 11.9471 5.52888H13L12.2229 6.39812 12.4568 7.5 11.5009 6.93534z"/><path fill="#E31D1C" d="M0 0V4H16V0H0Z"/><path fill="#272727" d="M0 8V12H16V8H0Z"/></g></svg>

<svg xmlns="http://www.w3.org/2000/svg" fill="none" viewBox="0 0 16 12"><mask id="760_svg__a" width="16" height="12" x="0" y="0" maskUnits="userSpaceOnUse"><path fill="#fff" d="M0 0h16v12H0z"/></mask><g fill-rule="evenodd" clip-rule="evenodd" mask="url(#760_svg__a)"><path fill="#F7FCFF" d="M0 0h16v12H0V0z"/><path fill="#409100" d="M4.5 6.935l-.934.565.213-1.102L3 5.573l1.055-.044L4.5 4.5l.446 1.029H6l-.777.87.234 1.101-.956-.565zm7 0l-.934.565.213-1.102L10 5.573l1.055-.044L11.5 4.5l.446 1.029H13l-.777.87.234 1.101-.956-.565z"/><path fill="#E31D1C" d="M0 0v4h16V0H0z"/><path fill="#272727" d="M0 8v4h16V8H0z"/></g></svg>
